X: 2378
M: C
L: 1/8
K: Bb
(udc) !segno!|:\
d>fB>d c>eA>c |[1,3 B>ba>g f>ed>c :|[2,4 B2d2B2 :|
|: A>B |\
c>f=e>g f2A>B | c>f=e>g f2A>B |\
c>=eg>b a>gf>e |[1 f>=ef>g f2 :|[2 f>=ef>g f>_ed>"_D.C."c |]


